X: 278
T: Foxhunter's
T: The Fox Hunt
R: slip jip
L: 1/8
M: 9/8
K: D
~F3 FED G2E|~F3 FED E2D|~F3 FED G2B|AFD DEF E2D:|
~B3 BAG FGA|B2E E2F G2B|ABc dcB ABc|d2D DEF E2D:|
~f3 fed g2e|~f3 fed e2d|~f3 fed g2b|afd def e2d:|
gfe d=cB AGA|B2E E2F G2B|ABc dcB ABc|d2D DEF E2D:|

